X:2
T:Scan Tester- No.2
C:No.2 from Will Duke's workshop
N:No. 2 on the tape
Q:1/4=110
I:abc2nwc
M:4/4
L:1/8
K:G
d/2|dBe3/2d/2 dBe3/2d/2|dBBc dAA3/2d/2|dBe3/2d/2 dBe3/2d/2||
[1dBBA EF G3/2:|[2dBBA EF G2
|:D3/2G/2 GG  (3FGA A2|D3/2G/2 GA B2G2|BdcB BA e2|D3/2D/2 EF G2G2:|


